Origami/64x64/apps/ldview.svg

<svg width="64" height="64" version="1" xmlns="http://www.w3.org/2000/svg">
 <path d="m4.0000004 51.242068v1.999971c0 1.527979 1.2495821 2.757961 2.80076 2.757961h50.39928c1.549977 0 2.79996-1.229982 2.79996-2.757961v-1.999971c0 1.527978-1.249983 2.757961-2.79996 2.757961h-50.39928c-1.5503779 0-2.79996-1.229983-2.79996-2.757961z" style="opacity:.2"/>
 <g transform="matrix(1.9999714 0 0 1.9999714 5.760572e-5 -.9991706)" style="fill:#f2b740">
  <path d="m18.429 5c-0.792 0-1.429 0.5947-1.429 1.3333v1.3333c0 0.7387 0.637 1.3334 1.429 1.3334h7.1429c0.791 0 1.428-0.5947 1.428-1.3333v-1.3334c0-0.7386-0.637-1.3333-1.429-1.3333h-7.1429z"/>
  <path d="M 6.4286,5 C 5.6371,5 5,5.5947 5,6.3333 L 5,7.6667 C 5,8.4053 5.6371,9 6.4286,9 L 13.571,9 C 14.363,9 15,8.4053 15,7.6667 L 15,6.3333 C 15,5.5947 14.363,5 13.571,5 L 6.4286,5 Z"/>
 </g>
 <path d="m59.9992 52.242068v-34.483507c0-1.527578-1.247983-2.75796-2.79996-2.75796h-50.39928c-1.5511779 0-2.79996 1.230322-2.79996 2.75856v34.481507c0 1.528258 1.2487821 2.758561 2.79996 2.758561l50.39928 2e-3c1.551177 0 2.79996-1.230323 2.79996-2.758561z" style="fill:#e49815"/>
 <g transform="matrix(1.9999714 0 0 1.9999714 5.760572e-5 -.9991706)" style="fill:#ffffff;opacity:.2">
  <path transform="matrix(.50000715 0 0 .50000715 -2.8803272e-5 .49959244)" d="m12.855469 9c-1.582778 0-2.855469 1.19059-2.855469 2.667969v1.001953c0-1.477379 1.272691-2.667969 2.855469-2.667969h14.289062c1.583978 0 2.855469 1.19059 2.855469 2.667969v-1.001953c0-1.477379-1.271491-2.667969-2.855469-2.667969h-14.289062zm24 0c-1.583978 0-2.857422 1.19059-2.857422 2.667969v1.001953c0-1.477379 1.273444-2.667969 2.857422-2.667969h14.287109c1.583977 0 2.855469 1.19059 2.855469 2.667969v-1.001953c0-1.477379-1.271492-2.667969-2.855469-2.667969h-14.287109z"/>
 </g>
</svg>

<svg xmlns="http://www.w3.org/2000/svg" width="64" height="64" version="1">
 <path style="opacity:0.2" d="m 4.0000004,51.242068 0,1.999971 C 4.0000004,54.770018 5.2495825,56 6.8007604,56 L 57.20004,56 C 58.750017,56 60,54.770018 60,53.242039 l 0,-1.999971 c 0,1.527978 -1.249983,2.757961 -2.79996,2.757961 l -50.3992796,0 c -1.5503779,0 -2.79996,-1.229983 -2.79996,-2.757961 z"/>
 <g style="fill:#f2b740" transform="matrix(1.9999714,0,0,1.9999714,5.760572e-5,-0.9991706)">
  <path d="M 18.429,5 C 17.637,5 17,5.5947 17,6.3333 l 0,1.3333 C 17,8.4053 17.637,9 18.429,9 l 7.1429,0 c 0.791,0 1.428,-0.5947 1.428,-1.3333 l 0,-1.3334 C 26.9999,5.5947 26.3629,5 25.5709,5 L 18.428,5 Z"/>
  <path d="M 6.4286,5 C 5.6371,5 5,5.5947 5,6.3333 L 5,7.6667 C 5,8.4053 5.6371,9 6.4286,9 L 13.571,9 C 14.363,9 15,8.4053 15,7.6667 L 15,6.3333 C 15,5.5947 14.363,5 13.571,5 L 6.4286,5 Z"/>
 </g>
 <path style="fill:#e49815" d="m 59.9992,52.242068 0,-34.483507 c 0,-1.527578 -1.247983,-2.75796 -2.79996,-2.75796 l -50.3992796,0 c -1.5511779,0 -2.79996,1.230322 -2.79996,2.75856 l 0,34.481507 c 0,1.528258 1.2487821,2.758561 2.79996,2.758561 l 50.3992796,0.002 c 1.551177,0 2.79996,-1.230323 2.79996,-2.758561 z"/>
 <g style="opacity:0.2;fill:#ffffff" transform="matrix(1.9999714,0,0,1.9999714,5.760572e-5,-0.9991706)">
  <path d="M 12.855469 9 C 11.272691 9 10 10.19059 10 11.667969 L 10 12.669922 C 10 11.192543 11.272691 10.001953 12.855469 10.001953 L 27.144531 10.001953 C 28.728509 10.001953 30 11.192543 30 12.669922 L 30 11.667969 C 30 10.19059 28.728509 9 27.144531 9 L 12.855469 9 z M 36.855469 9 C 35.271491 9 33.998047 10.19059 33.998047 11.667969 L 33.998047 12.669922 C 33.998047 11.192543 35.271491 10.001953 36.855469 10.001953 L 51.142578 10.001953 C 52.726555 10.001953 53.998047 11.192543 53.998047 12.669922 L 53.998047 11.667969 C 53.998047 10.19059 52.726555 9 51.142578 9 L 36.855469 9 z" transform="matrix(0.50000715,0,0,0.50000715,-2.8803272e-5,0.49959244)"/>
 </g>
</svg>
